!!!OTL: Es war einmal eine J&uuml;din (17a)
!!!id: T0129V
**kern
*clefG2
*k[]
*G:
{8d
=1
4g
8g
4b
16a
16a
=2
4.g
4g}
=3
{8d
=4
4a
8a
4a
8a
=5
4b}
4.r
=6
{8b
=7
8b
8b
8b
4dd
8dd
=8
4cc
8e
4e}
=9
{8e
=10
8.d
16d
8cc
4b
8a
=11
4g}
4.r
=12
{8b
=13
8b
8b
8b
4dd
8dd
=14
4cc
8e
4e}
=15
{8e
=16
8.d
16d
8cc
4b
8a
=17
4g}
4.r
==
*-
!!!minrhy: 16
!!!meters: 6/8 ]  ZZ[6
!!!cut: Es war einmal eine J&uuml;din (17a)
!!!reg: Luxemburg
!!!trd: Singendes Volk, Esch-Alzette 1937 posth.
!!!rhy1: X_  X__X_X__XX  X__.X__
!!!rhy2: X_  X__X_X__X_  X__0__.
!!!key: T0129V 16  G 6/8 ]  ZZ[6
!!!mod: SECHSTONSKALA DUR ?]  AMBITUS[8
!!!kad: 13-61-61
!!!akz: 1311_223_354-6_-531_354-6_-531_
!!!fot: 'a__b__c__d__c__d__
!!!for: 'a__b__c__d__c__d__
!!!fok: '^a_/__^d_^a_^d_^a_
!! PHRAS[AUFTAKTIG]
!!!fkt: Liebeslieder
!!!bem1: Esch-Alz., Anna M&uuml;ller, 1915,
!!!bem2: 17b)- Rammeldingen, Frau Wagner, 17.2.1934
!! THILL, Mathias:
!! PR[25] 2K[8] 2G[4] 3K[11] 3G[8] 4A[2] 4Ü[0] 5A[2] 6K[0] 6G[2]
!! 7K[0] 7G[0] 8A[0] MEHR[0] SI[36] ABS[53] SR[11] SP[25]
!! ST[12] 2k[9] 2g[17] 3k[6] 3g[0] 4d[2] 4ü[0] 5d[6] 6k[0] 6g[0]
!! 7k[0] 7g[0] 8d[0] mehr[0] si[40] dm[-4] sr[26] sp[13]
!! 1F[10] 2F[75] 3F[5] 4F[0] LF[0] 2P[0] 3P[10] 4P[0] TRI[0] DF[4] AB[60]
!! TF[0] U3K[0] U3[2] U4[0] U4Ü[0] U5[20] U6K[0] U6[0] U7K[0] U7[6]
!! N1[6] N2K[0] N2[15] N3K[0] N3[17] N4[17] N4Ü[0] N5[17] N6K[0] N6[2]
!!!n7k: 0] N7[0] O1[0] O2K[0] O2[0] O3K[0] O3[0] HÖ[0
!!!RNB: symbol: &uuml;  = u umlaut (UTF-8: Ã¼)
